X: 1
%%etbk:tnset id:1,pos:1,rep:3
%%etbk:site1 http://www.thesession.org/tunes/display/444
T: Terry 'Cuz' Teehan's
Z: Piano Box Version by Martin Fleischmann (www.boxplayer.ch)
M: 4/4
L: 1/8
R: Reel
K: Emin
|!2!B3 A BB AB|!4!d!2!B!1!A!3!F !1!D!2!E!3!F!4!A|!2!B2 BA BB AB|!4!d!2!B!1!A!2!F !1!E3 z|
B3 A BB AB|dBAF DEFA|B2 BA BB AB|dBAF E3 z|
!2!B!5!e!2!ef !4!g2 fe|!1!d2 !2!B!4!d !1!AA!2!F!1!A|Be ef g2 fe|!1!d!2!B!1!A!2!F !1!E3 z|
Be ef g2 fe|d2 Bd AA FA|!2!B!5!e!5!e!4!d !2!B!4!d!1!A!3!F| !1!D!2!EED !2!E4|

